dist/img/pusets/step-2.svg

<svg width="50" height="60" viewBox="0 0 50 60" fill="none" xmlns="http://www.w3.org/2000/svg">
<path d="M22.2956 43.1371C10.4019 43.1371 0.727051 33.4623 0.727051 21.5686C0.727051 9.67481 10.4019 0 22.2956 0C34.1889 0 43.8642 9.67481 43.8642 21.5686C43.8642 33.4623 34.1889 43.1371 22.2956 43.1371ZM22.2956 1.87553C11.4372 1.87553 2.60258 10.7101 2.60258 21.5686C2.60258 32.427 11.4372 41.2616 22.2956 41.2616C33.1536 41.2616 41.9887 32.427 41.9887 21.5686C41.9887 10.7101 33.1536 1.87553 22.2956 1.87553Z" fill="#D79081"/>
<path d="M22.2958 40.324C11.9538 40.324 3.54053 31.9103 3.54053 21.5688C3.54053 11.2273 11.9538 2.81348 22.2958 2.81348C32.6373 2.81348 41.0511 11.2273 41.0511 21.5688C41.0511 31.9103 32.6373 40.324 22.2958 40.324ZM22.2958 4.689C12.9882 4.689 5.41605 12.2616 5.41605 21.5688C5.41605 30.8759 12.9882 38.4485 22.2958 38.4485C31.6029 38.4485 39.1756 30.8759 39.1756 21.5688C39.1756 12.2616 31.6029 4.689 22.2958 4.689Z" fill="#D79081"/>
<path d="M36.3621 22.5064C35.8433 22.5064 35.4244 22.0875 35.4244 21.5687C35.4244 14.3289 29.535 8.43998 22.2957 8.43998C21.7769 8.43998 21.3579 8.02101 21.3579 7.50222C21.3579 6.98342 21.7769 6.56445 22.2957 6.56445C30.5684 6.56445 37.2999 13.2959 37.2999 21.5687C37.2999 22.0875 36.8805 22.5064 36.3621 22.5064Z" fill="#D79081"/>
<path d="M45.7376 25.319C45.2192 25.319 44.7998 24.8996 44.7998 24.3812C44.7998 23.8624 45.2192 23.4435 45.7376 23.4435C46.7719 23.4435 47.6131 22.6023 47.6131 21.568C47.6131 20.5336 46.7719 19.6924 45.7376 19.6924C45.2192 19.6924 44.7998 19.273 44.7998 18.7547C44.7998 18.2359 45.2192 17.8169 45.7376 17.8169C47.8063 17.8169 49.4886 19.4992 49.4886 21.568C49.4886 23.6367 47.8063 25.319 45.7376 25.319Z" fill="#D79081"/>
<path d="M45.7376 25.3189H42.7361C42.2173 25.3189 41.7983 24.8995 41.7983 24.3811C41.7983 23.8623 42.2173 23.4434 42.7361 23.4434H45.7376C46.2564 23.4434 46.6754 23.8623 46.6754 24.3811C46.6754 24.8995 46.2564 25.3189 45.7376 25.3189Z" fill="#D79081"/>
<path d="M45.7376 19.6924H42.7361C42.2173 19.6924 41.7983 19.273 41.7983 18.7547C41.7983 18.2359 42.2173 17.8169 42.7361 17.8169H45.7376C46.2564 17.8169 46.6754 18.2359 46.6754 18.7547C46.6754 19.273 46.2564 19.6924 45.7376 19.6924Z" fill="#D79081"/>
<path d="M45.7405 30.949C45.2217 30.949 44.8027 30.5301 44.8027 30.0113V23.4451C44.8027 22.9268 45.2217 22.5073 45.7405 22.5073C46.2588 22.5073 46.6783 22.9268 46.6783 23.4451V30.0113C46.6783 30.5291 46.2588 30.949 45.7405 30.949Z" fill="#D79081"/>
<path d="M45.7405 42.1976C45.2217 42.1976 44.8027 41.7781 44.8027 41.2598V34.6936C44.8027 34.1748 45.2217 33.7559 45.7405 33.7559C46.2588 33.7559 46.6783 34.1748 46.6783 34.6936V41.2598C46.6783 41.7781 46.2588 42.1976 45.7405 42.1976Z" fill="#D79081"/>
<path d="M45.7405 54.3797C45.2217 54.3797 44.8027 53.9607 44.8027 53.4419V46.8758C44.8027 46.3574 45.2217 45.938 45.7405 45.938C46.2588 45.938 46.6783 46.3574 46.6783 46.8758V53.4419C46.6783 53.9607 46.2588 54.3797 45.7405 54.3797Z" fill="#D79081"/>
<path d="M47.6151 31.8868C47.0963 31.8868 46.6773 31.4678 46.6773 30.949C46.6773 30.4316 46.257 30.0113 45.7396 30.0113C45.2217 30.0113 44.8018 30.4316 44.8018 30.949C44.8018 31.4678 44.3824 31.8868 43.864 31.8868C43.3452 31.8868 42.9263 31.4678 42.9263 30.949C42.9263 29.3982 44.1882 28.1357 45.7396 28.1357C47.2904 28.1357 48.5528 29.3982 48.5528 30.949C48.5528 31.4669 48.1334 31.8868 47.6151 31.8868Z" fill="#D79081"/>
<path d="M45.7396 36.5699C44.1882 36.5699 42.9263 35.3075 42.9263 33.7566C42.9263 33.2378 43.3452 32.8188 43.864 32.8188C44.3824 32.8188 44.8018 33.2378 44.8018 33.7566C44.8018 34.274 45.2217 34.6944 45.7396 34.6944C46.257 34.6944 46.6773 34.274 46.6773 33.7566C46.6773 33.2378 47.0963 32.8188 47.6151 32.8188C48.1334 32.8188 48.5528 33.2378 48.5528 33.7566C48.5528 35.3075 47.2904 36.5699 45.7396 36.5699Z" fill="#D79081"/>
<path d="M43.864 34.6946C43.3452 34.6946 42.9263 34.2751 42.9263 33.7568V30.949C42.9263 30.4307 43.3452 30.0112 43.864 30.0112C44.3824 30.0112 44.8018 30.4307 44.8018 30.949V33.7568C44.8018 34.2751 44.3824 34.6946 43.864 34.6946Z" fill="#D79081"/>
<path d="M47.615 34.6946C47.0962 34.6946 46.6772 34.2751 46.6772 33.7568V30.949C46.6772 30.4307 47.0962 30.0112 47.615 30.0112C48.1333 30.0112 48.5528 30.4307 48.5528 30.949V33.7568C48.5528 34.2751 48.1333 34.6946 47.615 34.6946Z" fill="#D79081"/>
<path d="M45.7405 43.1365C45.2217 43.1365 44.8027 42.7171 44.8027 42.1988V35.6326C44.8027 35.1138 45.2217 34.6948 45.7405 34.6948C46.2588 34.6948 46.6783 35.1138 46.6783 35.6326V42.1988C46.6783 42.7171 46.2588 43.1365 45.7405 43.1365Z" fill="#D79081"/>
<path d="M47.6151 44.0738C47.0963 44.0738 46.6773 43.6544 46.6773 43.136C46.6773 42.6182 46.257 42.1983 45.7396 42.1983C45.2217 42.1983 44.8018 42.6182 44.8018 43.136C44.8018 43.6544 44.3824 44.0738 43.864 44.0738C43.3452 44.0738 42.9263 43.6544 42.9263 43.136C42.9263 41.5852 44.1882 40.3228 45.7396 40.3228C47.2904 40.3228 48.5528 41.5852 48.5528 43.136C48.5528 43.6544 48.1334 44.0738 47.6151 44.0738Z" fill="#D79081"/>
<path d="M45.7396 48.752C44.1882 48.752 42.9263 47.4901 42.9263 45.9387C42.9263 45.4204 43.3452 45.001 43.864 45.001C44.3824 45.001 44.8018 45.4204 44.8018 45.9387C44.8018 46.4566 45.2217 46.8765 45.7396 46.8765C46.257 46.8765 46.6773 46.4566 46.6773 45.9387C46.6773 45.4204 47.0963 45.001 47.6151 45.001C48.1334 45.001 48.5528 45.4204 48.5528 45.9387C48.5528 47.4901 47.2904 48.752 45.7396 48.752Z" fill="#D79081"/>
<path d="M43.864 46.877C43.3452 46.877 42.9263 46.458 42.9263 45.9393V43.1365C42.9263 42.6177 43.3452 42.1987 43.864 42.1987C44.3824 42.1987 44.8018 42.6177 44.8018 43.1365V45.9393C44.8018 46.458 44.3824 46.877 43.864 46.877Z" fill="#D79081"/>
<path d="M47.615 46.877C47.0962 46.877 46.6772 46.458 46.6772 45.9393V43.1365C46.6772 42.6177 47.0962 42.1987 47.615 42.1987C48.1333 42.1987 48.5528 42.6177 48.5528 43.1365V45.9393C48.5528 46.458 48.1333 46.877 47.615 46.877Z" fill="#D79081"/>
<path d="M47.6151 55.3165C47.0963 55.3165 46.6773 54.8975 46.6773 54.3787C46.6773 53.8613 46.257 53.441 45.7396 53.441C45.2217 53.441 44.8018 53.8613 44.8018 54.3787C44.8018 54.8975 44.3824 55.3165 43.864 55.3165C43.3452 55.3165 42.9263 54.8975 42.9263 54.3787C42.9263 52.8278 44.1882 51.5654 45.7396 51.5654C47.2904 51.5654 48.5528 52.8278 48.5528 54.3787C48.5528 54.8975 48.1334 55.3165 47.6151 55.3165Z" fill="#D79081"/>
<path d="M45.7396 59.9996C44.1882 59.9996 42.9263 58.7376 42.9263 57.1863C42.9263 56.668 43.3452 56.2485 43.864 56.2485C44.3824 56.2485 44.8018 56.668 44.8018 57.1863C44.8018 57.7042 45.2217 58.1241 45.7396 58.1241C46.257 58.1241 46.6773 57.7042 46.6773 57.1863C46.6773 56.668 47.0963 56.2485 47.6151 56.2485C48.1334 56.2485 48.5528 56.668 48.5528 57.1863C48.5528 58.7386 47.2904 59.9996 45.7396 59.9996Z" fill="#D79081"/>
<path d="M43.864 58.1243C43.3452 58.1243 42.9263 57.7053 42.9263 57.1865V54.3787C42.9263 53.8603 43.3452 53.4409 43.864 53.4409C44.3824 53.4409 44.8018 53.8603 44.8018 54.3787V57.1865C44.8018 57.7053 44.3824 58.1243 43.864 58.1243Z" fill="#D79081"/>
<path d="M47.615 58.1243C47.0962 58.1243 46.6772 57.7053 46.6772 57.1865V54.3787C46.6772 53.8603 47.0962 53.4409 47.615 53.4409C48.1333 53.4409 48.5528 53.8603 48.5528 54.3787V57.1865C48.5528 57.7053 48.1333 58.1243 47.615 58.1243Z" fill="#D79081"/>
</svg>

<svg width="100%" height="100%" viewBox="0 0 50 60" xmlns="http://www.w3.org/2000/svg" fill="none" style="color: inherit;"><path d="M22.296 43.137c-11.894 0-21.569-9.675-21.569-21.568 0-11.894 9.675-21.569 21.569-21.569 11.893 0 21.569 9.675 21.569 21.569 0 11.894-9.675 21.568-21.569 21.568zm0-41.262c-10.858 0-19.693 8.835-19.693 19.693s8.835 19.693 19.693 19.693 19.693-8.835 19.693-19.693-8.835-19.693-19.693-19.693zM22.296 40.324c-10.342 0-18.755-8.414-18.755-18.755s8.413-18.755 18.755-18.755c10.342 0 18.755 8.414 18.755 18.755s-8.414 18.755-18.755 18.755zm0-35.635c-9.308 0-16.88 7.573-16.88 16.88 0 9.307 7.572 16.88 16.88 16.88 9.307 0 16.88-7.573 16.88-16.88 0-9.307-7.573-16.88-16.88-16.88zM36.362 22.506c-.519 0-.938-.419-.938-.938 0-7.24-5.889-13.129-13.129-13.129-.519 0-.938-.419-.938-.938 0-.519.419-.938.938-.938 8.273 0 15.004 6.731 15.004 15.004 0 .519-.419.938-.938.938zM45.738 25.319c-.518 0-.938-.419-.938-.938 0-.519.419-.938.938-.938 1.034 0 1.876-.841 1.876-1.875s-.841-1.876-1.876-1.876c-.518 0-.938-.419-.938-.938 0-.519.419-.938.938-.938 2.069 0 3.751 1.682 3.751 3.751s-1.682 3.751-3.751 3.751zM45.738 25.319h-3.002c-.519 0-.938-.419-.938-.938 0-.519.419-.938.938-.938h3.002c.519 0 .938.419.938.938 0 .518-.419.938-.938.938zM45.738 19.692h-3.002c-.519 0-.938-.419-.938-.938 0-.519.419-.938.938-.938h3.002c.519 0 .938.419.938.938 0 .518-.419.938-.938.938zM45.74 30.949c-.519 0-.938-.419-.938-.938v-6.566c0-.518.419-.938.938-.938.518 0 .938.419.938.938v6.566c0 .518-.419.938-.938.938zM45.74 42.198c-.519 0-.938-.419-.938-.938v-6.566c0-.519.419-.938.938-.938.518 0 .938.419.938.938v6.566c0 .518-.419.938-.938.938zM45.74 54.38c-.519 0-.938-.419-.938-.938v-6.566c0-.518.419-.938.938-.938.518 0 .938.419.938.938v6.566c0 .519-.419.938-.938.938zM47.615 31.887c-.519 0-.938-.419-.938-.938 0-.517-.42-.938-.938-.938s-.938.42-.938.938c0 .519-.419.938-.938.938-.519 0-.938-.419-.938-.938 0-1.551 1.262-2.813 2.813-2.813 1.551 0 2.813 1.262 2.813 2.813 0 .518-.419.938-.938.938zM45.74 36.57c-1.551 0-2.813-1.262-2.813-2.813 0-.519.419-.938.938-.938.518 0 .938.419.938.938 0 .517.42.938.938.938.517 0 .938-.42.938-.938 0-.519.419-.938.938-.938.518 0 .938.419.938.938 0 1.551-1.262 2.813-2.813 2.813zM43.864 34.695c-.519 0-.938-.419-.938-.938v-2.808c0-.518.419-.938.938-.938.518 0 .938.42.938.938v2.808c0 .518-.419.938-.938.938zM47.615 34.695c-.519 0-.938-.419-.938-.938v-2.808c0-.518.419-.938.938-.938.518 0 .938.42.938.938v2.808c0 .518-.419.938-.938.938zM45.74 43.136c-.519 0-.938-.419-.938-.938v-6.566c0-.519.419-.938.938-.938.518 0 .938.419.938.938v6.566c0 .518-.419.938-.938.938zM47.615 44.074c-.519 0-.938-.419-.938-.938 0-.518-.42-.938-.938-.938s-.938.42-.938.938-.419.938-.938.938c-.519 0-.938-.419-.938-.938 0-1.551 1.262-2.813 2.813-2.813 1.551 0 2.813 1.262 2.813 2.813 0 .518-.419.938-.938.938zM45.74 48.752c-1.551 0-2.813-1.262-2.813-2.813 0-.518.419-.938.938-.938.518 0 .938.419.938.938 0 .518.42.938.938.938.517 0 .938-.42.938-.938s.419-.938.938-.938c.518 0 .938.419.938.938 0 1.551-1.262 2.813-2.813 2.813zM43.864 46.877c-.519 0-.938-.419-.938-.938v-2.803c0-.519.419-.938.938-.938.518 0 .938.419.938.938v2.803c0 .519-.419.938-.938.938zM47.615 46.877c-.519 0-.938-.419-.938-.938v-2.803c0-.519.419-.938.938-.938.518 0 .938.419.938.938v2.803c0 .519-.419.938-.938.938zM47.615 55.316c-.519 0-.938-.419-.938-.938 0-.517-.42-.938-.938-.938s-.938.42-.938.938c0 .519-.419.938-.938.938-.519 0-.938-.419-.938-.938 0-1.551 1.262-2.813 2.813-2.813 1.551 0 2.813 1.262 2.813 2.813 0 .519-.419.938-.938.938zM45.74 60c-1.551 0-2.813-1.262-2.813-2.813 0-.518.419-.938.938-.938.518 0 .938.419.938.938 0 .518.42.938.938.938.517 0 .938-.42.938-.938s.419-.938.938-.938c.518 0 .938.419.938.938 0 1.552-1.262 2.813-2.813 2.813zM43.864 58.124c-.519 0-.938-.419-.938-.938v-2.808c0-.518.419-.938.938-.938.518 0 .938.419.938.938v2.808c0 .519-.419.938-.938.938zM47.615 58.124c-.519 0-.938-.419-.938-.938v-2.808c0-.518.419-.938.938-.938.518 0 .938.419.938.938v2.808c0 .519-.419.938-.938.938z" fill="currentColor"/></svg>
